modules/salescenter/install/components/bitrix/salescenter.paysystem.panel/templates/.default/images/yandexcheckout_webmoney.svg

<svg width="146" height="54" viewBox="0 0 146 54" fill="none" xmlns="http://www.w3.org/2000/svg">
<path fill-rule="evenodd" clip-rule="evenodd" d="M100.789 12.4688L103.701 20.8843H103.838L106.431 12.4688H108.866L104.747 23.9017C103.608 27.0578 102.221 28.7047 99.6047 28.7047V26.8306C101.153 26.8306 102.107 25.5951 102.655 23.9017L98.2853 12.4688H100.789ZM131.208 0.75354C133.37 0.75354 135.426 1.24877 137.272 2.13476C137.561 2.26528 137.853 2.42158 138.141 2.57802L136.876 3.69902L134.979 1.74414L131.71 4.61091L129.785 2.5517L123.773 7.89476L127.622 12.0909L126.119 13.3938L129.917 17.59L128.414 18.8922L133.845 24.8609L137.06 21.9416L139.856 25.07C139.302 25.4871 138.695 25.905 138.037 26.2693C136.033 27.3899 133.713 28.0402 131.235 28.0402C123.615 28.0402 117.42 21.9167 117.42 14.3851C117.393 6.90458 123.589 0.75354 131.208 0.75354ZM35.3419 6.93316V13.45C36.0228 13.0855 37.1833 12.6034 38.4126 12.6034C41.2345 12.6034 42.7595 14.5702 42.7595 18.2295C42.7595 22.5063 40.7111 24.5874 37.4131 24.5874C36.2061 24.5874 34.3403 24.1985 32.974 23.4651V7.50422L35.3419 6.93316ZM68.0507 12.4688C71.0554 12.4688 73.2394 14.4577 73.2394 18.4611C73.2394 22.371 71.1688 24.4531 68.0507 24.4531C64.9332 24.4531 62.8626 22.371 62.8626 18.4611C62.8626 14.4577 65.0477 12.4688 68.0507 12.4688ZM92.3805 12.4688C95.226 12.4688 96.9789 14.3223 96.9789 18.0492V18.8954H89.5595C89.5595 21.6389 90.6747 22.8511 93.0186 22.8511C94.2462 22.8511 95.3856 22.4159 96.6349 21.6626V23.4009C95.6116 23.9953 94.2462 24.4531 92.6074 24.4531C88.7865 24.4531 87.2155 22.0747 87.2155 18.4618C87.2155 14.9843 88.9667 12.4688 92.3805 12.4688ZM25.4279 12.4688C28.2716 12.4688 30.0249 14.3223 30.0249 18.0492V18.8954H22.6065C22.6065 21.6389 23.7208 22.8511 26.0657 22.8511C27.2941 22.8511 28.4319 22.4159 29.6825 21.6626V23.4009C28.6588 23.9953 27.2941 24.4531 25.6546 24.4531C21.8327 24.4531 20.2625 22.0747 20.2625 18.4618C20.2625 14.9843 22.0144 12.4688 25.4279 12.4688ZM3.42043 8.05048L5.96932 20.149H6.1284L9.08624 8.05048H11.1122L14.2755 20.149H14.4348L16.7563 8.05048H19.4189L15.7312 24.2646H13.2734L10.1798 12.8517H10.0197L7.01495 24.2646H4.5588L0.87207 8.05048H3.42043ZM47.9049 8.04032L53.0017 20.8242H53.1156L57.9844 8.04032H60.8078V24.2557H58.3502V12.5002H58.1449L53.5021 24.2557H52.047L47.4029 12.775H47.1989V24.2557H45.1506V8.04032H47.9049ZM80.8422 12.4688C83.5728 12.4688 84.5949 13.5438 84.5949 15.8987V24.1785H82.2301V16.4253C82.2301 14.6191 81.3441 14.2989 80.182 14.2989C79.2728 14.2989 78.1109 14.7113 77.4061 15.1227V24.1785H75.0393V14.1623L75.3186 13.9991C76.4267 13.3721 78.4439 12.4688 80.8422 12.4688ZM141.359 19.206L143.572 21.6297L141.12 23.8446L138.906 21.3957L141.359 19.206ZM37.7991 14.3874C36.8881 14.3874 36.2284 14.6398 35.318 15.142V22.6194C36.0463 22.9393 36.8433 22.9868 37.4131 22.9868C39.0967 22.9868 40.3697 21.9333 40.3697 18.2295C40.3697 15.3251 39.323 14.3874 37.7991 14.3874ZM68.0507 14.0712C66.5494 14.0712 65.251 15.3742 65.251 18.4611C65.251 21.5945 66.4358 22.8511 68.0507 22.8511C69.6656 22.8511 70.8487 21.5945 70.8487 18.4611C70.8487 15.3742 69.598 14.0712 68.0507 14.0712ZM134.293 16.2353L137.272 19.4926L133.976 22.4121L131.024 19.1802L134.293 16.2353ZM139.196 14.28L141.411 16.7292L138.959 18.92L136.745 16.4693L139.196 14.28ZM92.3122 14.0018C90.9238 14.0018 89.8555 15.0765 89.6042 17.362H94.8149C94.7029 14.9615 93.541 14.0018 92.3122 14.0018ZM25.3596 14.0018C23.9715 14.0018 22.9013 15.0765 22.6521 17.362H27.8623C27.7492 14.9615 26.588 14.0018 25.3596 14.0018ZM131.972 10.6313L134.926 13.8891L131.629 16.808L128.677 13.5506L131.972 10.6313ZM143.625 13.4986L145.128 15.1145L143.468 16.5736L141.991 14.9581L143.625 13.4986ZM137.088 9.14586L139.302 11.5694L136.851 13.759L134.635 11.3352L137.088 9.14586ZM141.543 8.67641L143.019 10.2929L141.384 11.752L139.908 10.136L141.543 8.67641ZM129.626 5.08023L132.579 8.33789L129.283 11.257L126.332 7.99938L129.626 5.08023ZM134.82 4.24593L137.035 6.66985L134.583 8.88495L132.368 6.43512L134.82 4.24593ZM139.434 3.82913L140.911 5.47085L139.275 6.93035L137.799 5.31441L139.434 3.82913Z" fill="#006FA8"/>
<path d="M44.0032 46.7023C45.3705 46.7023 46.4789 45.5939 46.4789 44.2266C46.4789 42.8594 45.3705 41.751 44.0032 41.751C42.636 41.751 41.5276 42.8594 41.5276 44.2266C41.5276 45.5939 42.636 46.7023 44.0032 46.7023Z" fill="#00EEBC"/>
<path d="M42.5629 39.92L37.6428 35L31.9815 40.6613C30.0376 42.6053 30.0376 45.7575 31.9815 47.7014L33.3812 49.1011C33.3818 49.1011 42.6359 39.92 42.5629 39.92Z" fill="#00EEBC"/>
<path d="M35.5897 41.5507C35.5436 41.5052 35.4981 41.4596 35.4531 41.4146C35.4509 41.413 35.4493 41.4108 35.4476 41.4092C35.3982 41.3603 35.3494 41.3115 35.3017 41.2638C35.3011 41.2632 35.3 41.2621 35.2995 41.2616C34.821 40.7491 34.528 40.0605 34.528 39.3039C34.528 38.511 34.8495 37.7939 35.3691 37.2743L31.9821 40.6613C31.9124 40.731 31.8455 40.8018 31.7813 40.8742C31.7747 40.8813 31.7681 40.889 31.7616 40.8961C31.7605 40.8972 31.7599 40.8978 31.7588 40.8989C31.7533 40.9049 31.7478 40.911 31.7424 40.917C31.7429 40.917 31.7429 40.917 31.7435 40.917C29.9954 42.8714 30.0595 45.8749 31.9366 47.7519L37.5979 53.4132L42.5179 48.4932C42.5668 48.4932 38.3243 44.2689 35.5897 41.5507Z" fill="url(#paint0_linear)"/>
<path fill-rule="evenodd" clip-rule="evenodd" d="M49.8557 40.9444C49.8557 38.551 51.3816 37.3505 53.2018 37.3505H55.053V48.7674H53.8137V44.3912H52.7835L50.8239 48.7674H49.391L51.5443 44.0891C50.5296 43.5779 49.8557 42.6562 49.8557 40.9444ZM53.1476 38.3884C52.1562 38.3884 51.188 39.039 51.188 40.9444C51.188 42.7801 52.071 43.3688 53.1476 43.3688H53.806V38.3884H53.1476ZM59.77 44.0968H57.9111V40.6965H56.6641V48.7132H57.9111V45.1192H59.77V48.7132H61.0016V40.6965H59.77V44.0968ZM62.2254 47.683C62.9612 45.9867 63.0386 43.5004 63.0386 41.3704V40.6888H66.7797V47.683H67.4149V50.2778H66.3073V48.7054H62.8527V50.2778H61.7296V47.683H62.2254ZM64.154 41.8351C64.154 43.5237 64.0765 45.9867 63.4027 47.6908H65.5482V41.688H64.154V41.8351ZM72.5502 47.2183C72.2326 47.4429 71.6672 47.7605 70.9701 47.7605C69.9787 47.7605 69.4674 46.8078 69.4674 44.9953H72.829V44.3137C72.829 41.595 71.946 40.5958 70.606 40.5958C68.8943 40.5958 68.1739 42.4703 68.1739 45.0495C68.1739 47.5126 69.1964 48.8371 70.8616 48.8371C71.6594 48.8371 72.3333 48.5815 72.8445 48.1865L72.5502 47.2183ZM70.5983 41.6028C71.3186 41.6028 71.5433 42.6019 71.5433 43.9729H69.4829C69.5604 42.54 69.8315 41.6028 70.5983 41.6028ZM78.8473 48.7054L76.5546 44.4609L76.5547 44.4606L78.553 40.6965H78.5489L78.553 40.6888H77.2904L75.3541 44.3989V40.6965V40.6888H74.107V40.6965V48.7054V48.7132H75.3541V48.7054V44.7165L77.4841 48.7132H78.8396L78.8354 48.7054H78.8473ZM83.1771 42.1682L83.1712 42.1632L83.1693 42.1759C82.8363 41.8894 82.356 41.6183 81.8448 41.6183C81.4276 41.6183 81.0648 41.8374 80.797 42.2782C80.4966 42.7789 80.319 43.5621 80.319 44.6313C80.319 46.6374 80.7992 47.7837 81.8061 47.7837C82.418 47.7837 82.875 47.5436 83.1693 47.288L83.4482 48.2175L83.4401 48.2242L83.4404 48.2252C83.0067 48.5893 82.4955 48.8294 81.7596 48.8294C80.0324 48.8294 78.9945 47.4429 78.9945 44.7087C78.9945 43.0266 79.4303 41.7526 80.2833 41.0924C80.7082 40.7599 81.2372 40.5804 81.8681 40.5804C82.5884 40.5804 83.0067 40.774 83.3552 40.9909L83.1771 42.1682ZM92.4485 48.7674L88.8933 42.6174L92.1619 37.3505H91.4028L88.08 42.6871V37.3505H87.2899V48.7674H88.08V42.7491L91.5577 48.7674H92.4485ZM97.3282 42.9195V47.3267C97.3282 47.8844 97.4056 48.5041 97.4986 48.7984H96.817C96.7473 48.597 96.6698 48.2872 96.6233 47.714C96.2361 48.4808 95.6629 48.961 94.8728 48.961C93.7885 48.961 93.0449 48.0935 93.0449 46.6219C93.0449 44.8946 93.9821 43.9961 95.7171 43.9961H96.5923V42.9892C96.5923 41.7577 96.1354 41.231 95.2601 41.231C94.5785 41.231 93.9589 41.5563 93.5793 42.114L93.3702 41.3936C93.6878 40.9831 94.3539 40.5804 95.2601 40.5804C96.5846 40.5804 97.3282 41.3162 97.3282 42.9195ZM95.0355 48.3569C95.7868 48.3569 96.3058 47.6365 96.5923 46.7768V44.5538H95.7326C94.4158 44.5538 93.7807 45.158 93.7807 46.5677C93.7807 47.6985 94.2764 48.3569 95.0355 48.3569ZM102.951 48.078L102.711 47.4507C102.711 47.4507 102.146 48.3182 101.093 48.3182C99.83 48.3182 99.2646 47.0014 99.2646 44.7939C99.2646 42.5167 99.8455 41.2232 101.093 41.2232C101.79 41.2232 102.309 41.6415 102.665 42.1372L102.874 41.3394C102.518 40.9057 101.937 40.5881 101.093 40.5881C99.4272 40.5881 98.5055 42.145 98.5055 44.8017C98.5055 47.4274 99.4427 48.9765 101.077 48.9765C102.355 48.9765 102.951 48.078 102.951 48.078ZM108.071 47.4507L108.311 48.078C108.311 48.078 107.715 48.9765 106.437 48.9765C104.803 48.9765 103.865 47.4274 103.865 44.8017C103.865 42.145 104.787 40.5881 106.452 40.5881C107.289 40.5881 107.878 40.9057 108.234 41.3394L108.025 42.1372C107.668 41.6415 107.15 41.2232 106.46 41.2232C105.213 41.2232 104.632 42.5167 104.632 44.7939C104.632 47.0014 105.198 48.3182 106.46 48.3182C107.506 48.3182 108.071 47.4507 108.071 47.4507ZM113.292 47.3267V42.9195C113.292 41.3162 112.548 40.5804 111.231 40.5804C110.325 40.5804 109.659 40.9831 109.342 41.3936L109.551 42.114C109.93 41.5563 110.55 41.231 111.231 41.231C112.107 41.231 112.564 41.7577 112.564 42.9892V43.9961H111.688C109.953 43.9961 109.016 44.8946 109.016 46.6219C109.016 48.0935 109.76 48.961 110.844 48.961C111.642 48.961 112.215 48.4808 112.595 47.714C112.641 48.2872 112.726 48.597 112.788 48.7984H113.47C113.377 48.5041 113.292 47.8844 113.292 47.3267ZM112.564 46.7768C112.277 47.6365 111.75 48.3569 111.007 48.3569C110.248 48.3569 109.752 47.6985 109.752 46.5677C109.752 45.158 110.387 44.5538 111.704 44.5538H112.564V46.7768Z" fill="#333333"/>
<defs>
<linearGradient id="paint0_linear" x1="28.5312" y1="46.9284" x2="39.3949" y2="52.974" gradientUnits="userSpaceOnUse">
<stop stop-color="#00A9F9"/>
<stop offset="0.9899" stop-color="#0B89EA"/>
</linearGradient>
</defs>
</svg>

<svg xmlns="http://www.w3.org/2000/svg" width="125" height="54" viewBox="0 0 146 63" fill="none"><path fill-rule="evenodd" d="M100.79 12.47l2.912 8.416h.137l2.593-8.415h2.435l-4.12 11.433c-1.14 3.156-2.526 4.803-5.142 4.803V26.83c1.548 0 2.502-1.236 3.05-2.93l-4.37-11.433h2.504zM131.208.754c2.162 0 4.218.495 6.064 1.38l.87.443-1.265 1.12-1.897-1.955-3.27 2.867-1.925-2.06-6.012 5.343 3.85 4.196-1.503 1.303 3.798 4.196-1.503 1.302 5.43 5.97 3.215-2.92 2.796 3.128a15.63 15.63 0 0 1-1.819 1.199 13.9 13.9 0 0 1-6.802 1.771c-7.62 0-13.815-6.123-13.815-13.655-.027-7.48 6.17-13.632 13.788-13.632zm-95.866 6.18v6.517c.68-.364 1.84-.847 3.07-.847 2.822 0 4.347 1.967 4.347 5.626 0 4.277-2.048 6.358-5.346 6.358a10.5 10.5 0 0 1-4.439-1.122V7.504l2.368-.57zm32.71 5.536c3.005 0 5.19 1.99 5.19 5.992 0 3.9-2.07 5.992-5.19 5.992s-5.188-2.082-5.188-5.992c0-4.003 2.185-5.992 5.188-5.992zm24.33 0c2.846 0 4.598 1.854 4.598 5.58v.846h-7.42c0 2.744 1.115 3.956 3.46 3.956 1.228 0 2.367-.435 3.616-1.188V23.4c-1.023.594-2.39 1.052-4.028 1.052-3.82 0-5.392-2.378-5.392-5.99 0-3.478 1.75-5.993 5.165-5.993zm-66.953 0c2.844 0 4.597 1.854 4.597 5.58v.846h-7.418c0 2.744 1.114 3.956 3.46 3.956 1.228 0 2.366-.435 3.617-1.188V23.4c-1.024.594-2.388 1.052-4.028 1.052-3.822 0-5.392-2.378-5.392-5.99 0-3.478 1.752-5.993 5.165-5.993zM3.42 8.05l2.55 12.1h.16l2.958-12.1h2.026l3.163 12.1h.16l2.322-12.1h2.663L15.73 24.265h-2.458L10.18 12.852h-.16L7.015 24.265H4.56L.872 8.05H3.42zm44.484-.01l5.097 12.784h.114l4.87-12.784h2.823v16.215H58.35V12.5h-.205l-4.643 11.756h-1.455l-4.644-11.48H47.2v11.48H45.15V8.04h2.754zm32.937 4.428c2.73 0 3.753 1.075 3.753 3.43v8.28H82.23v-7.753c0-1.806-.886-2.126-2.048-2.126-.91 0-2.07.412-2.776.824v9.056H75.04V14.162l.28-.163c1.108-.627 3.125-1.53 5.524-1.53zm60.517 6.737l2.213 2.424-2.452 2.215-2.214-2.45 2.453-2.2zM37.8 14.387c-.91 0-1.57.252-2.48.755v7.477c.728.32 1.525.367 2.095.367 1.684 0 2.957-1.053 2.957-4.757 0-2.904-1.047-3.842-2.57-3.842zm30.252-.316c-1.5 0-2.8 1.303-2.8 4.4 0 3.133 1.185 4.4 2.8 4.4s2.798-1.257 2.798-4.4c0-3.087-1.25-4.4-2.798-4.4zm66.242 2.164l2.98 3.257-3.296 2.92-2.952-3.232 3.27-2.945zm4.903-1.955l2.215 2.45-2.452 2.19-2.214-2.45 2.45-2.19zm-46.884-.278c-1.388 0-2.457 1.075-2.708 3.36h5.21c-.112-2.4-1.274-3.36-2.503-3.36zm-66.953 0c-1.388 0-2.458 1.075-2.707 3.36h5.2c-.113-2.4-1.274-3.36-2.503-3.36zm106.612-3.37l2.954 3.258-3.297 2.92-2.952-3.257 3.295-2.92zm11.653 2.867l1.503 1.616-1.66 1.46-1.477-1.615 1.634-1.46zm-6.537-4.353l2.214 2.424-2.45 2.2-2.216-2.424 2.453-2.19zm4.455-.47l1.476 1.616-1.635 1.46-1.476-1.616 1.635-1.46zM129.626 5.08l2.953 3.258-3.296 2.92L126.332 8l3.294-2.92zm5.194-.834l2.215 2.424-2.452 2.215-2.215-2.45 2.452-2.19zm4.614-.417l1.477 1.642-1.636 1.46-1.476-1.616 1.635-1.485z" fill="#006fa8"/><g clip-path="url(#C)"><g fill="#000"><path d="M73.17 50.214h-2.492l-1.764 3h-.908l-.03-6.474h-2.36v11.7h2.36l.03-3.2h.902l2.342 3.2h2.614L70.8 54.17l2.36-3.957zm17.855 3.85a6.37 6.37 0 0 0-1.544-.697l-.66-.24c-.324-.117-.665-.24-.677-.558a.54.54 0 0 1 .063-.272c.044-.084.1-.156.2-.208a1.15 1.15 0 0 1 .578-.19 1.92 1.92 0 0 1 1.261.363l.064.04 1.26-1.4-.064-.05a3.09 3.09 0 0 0-.51-.357 3.47 3.47 0 0 0-1.046-.374 4 4 0 0 0-1.608 0 3.05 3.05 0 0 0-1.41.558c-.264.2-.484.447-.65.728a2.41 2.41 0 0 0-.311.913 2.3 2.3 0 0 0 .428 1.641 3.5 3.5 0 0 0 1.735 1.005l.104.033.237.078c.856.28 1.1.4 1.237.558a.5.5 0 0 1 .104.29c0 .396-.503.558-.844.658-.24.043-.484.04-.72-.013a1.84 1.84 0 0 1-.656-.288 2.81 2.81 0 0 1-.798-.776l-1.417 1.4.04.056c.63.76 1.512 1.3 2.498 1.496a5.57 5.57 0 0 0 .682.084h.237a3.68 3.68 0 0 0 2.174-.653c.428-.292.756-.7.943-1.172a2.22 2.22 0 0 0 .118-.988 2.24 2.24 0 0 0-.326-.943 2.39 2.39 0 0 0-.717-.72zm7.62 0a6.32 6.32 0 0 0-1.538-.698l-.526-.2-.133-.05c-.33-.117-.665-.24-.682-.558.001-.094.026-.187.07-.27a.61.61 0 0 1 .189-.21 1.15 1.15 0 0 1 .578-.19c.452-.03.9.1 1.26.363l.058.04 1.26-1.4-.058-.05a2.99 2.99 0 0 0-.515-.357c-.323-.18-.675-.306-1.04-.374-.532-.1-1.08-.1-1.613 0a3.1 3.1 0 0 0-1.41.558c-.266.197-.488.443-.655.724a2.4 2.4 0 0 0-.317.911 2.26 2.26 0 0 0 .428 1.64 3.5 3.5 0 0 0 1.735 1.005l.098.033.237.078c.862.28 1.104.4 1.243.558a.44.44 0 0 1 .098.29c0 .396-.497.558-.84.66a1.85 1.85 0 0 1-.723-.013 1.81 1.81 0 0 1-.66-.29 2.96 2.96 0 0 1-.798-.776l-1.417 1.4.046.056c.63.76 1.512 1.3 2.498 1.496a5.57 5.57 0 0 0 .682.084h.237a3.68 3.68 0 0 0 2.174-.653 2.57 2.57 0 0 0 .943-1.172 2.22 2.22 0 0 0 .118-.988 2.24 2.24 0 0 0-.326-.943 2.38 2.38 0 0 0-.706-.714zm-17.73-3.85v.804h-.104c-.646-.624-1.52-.977-2.434-.982a4.14 4.14 0 0 0-1.633.303c-.516.2-.98.524-1.363.92a4.31 4.31 0 0 0-1.156 3.036c-.03 1.136.383 2.24 1.156 3.097.373.396.83.7 1.34.92a4.01 4.01 0 0 0 1.615.298 3.99 3.99 0 0 0 2.486-.921h.093v.72h2.452v-8.192h-2.452zm.122 4.124c.025.66-.204 1.306-.642 1.814a2.15 2.15 0 0 1-.759.526c-.3.12-.603.176-.918.166-.305.005-.608-.057-.886-.18a2.02 2.02 0 0 1-.716-.534 2.67 2.67 0 0 1-.625-1.836c-.02-.645.206-1.274.636-1.77a2.07 2.07 0 0 1 .722-.525c.277-.12.58-.182.885-.178.313-.01.624.048.9.17a2.11 2.11 0 0 1 .749.529 2.64 2.64 0 0 1 .642 1.819zm26.546-4.124v.804h-.104a3.53 3.53 0 0 0-2.428-.982 4.14 4.14 0 0 0-1.635.304c-.517.2-.982.523-1.366.918a4.31 4.31 0 0 0-1.157 3.036c-.03 1.136.383 2.24 1.157 3.097a3.86 3.86 0 0 0 1.34.919 4.12 4.12 0 0 0 1.615.298 3.99 3.99 0 0 0 2.486-.921h.092v.72h2.452v-8.192h-2.452zm.122 4.124a2.6 2.6 0 0 1-.642 1.814 2.15 2.15 0 0 1-.759.526 2.22 2.22 0 0 1-.918.166 2.09 2.09 0 0 1-.885-.18 2.02 2.02 0 0 1-.717-.534c-.432-.518-.654-1.17-.624-1.836-.02-.645.207-1.274.636-1.77a2.06 2.06 0 0 1 .722-.525 2.15 2.15 0 0 1 .885-.178 2.14 2.14 0 0 1 .91.17c.285.122.543.3.75.53.44.5.67 1.157.642 1.82z"/></g><path d="M49.513 45.36c-5.1 0-9.14 3.963-9.14 8.82 0 4.912 4.107 8.82 9.14 8.82s9.14-3.963 9.14-8.82-4.107-8.82-9.14-8.82zm0 12.058c-1.85 0-3.413-1.507-3.413-3.294s1.562-3.294 3.413-3.294 3.413 1.507 3.413 3.294a3.4 3.4 0 0 1-3.413 3.294z" fill="url(#A)"/><path d="M40.316 47.872v12.84h-3.24l-4.164-12.84h7.404z" fill="url(#B)"/></g><defs><linearGradient id="A" x1="49.513" y1="45.36" x2="49.513" y2="63" gradientUnits="userSpaceOnUse"><stop stop-color="#0160d1"/><stop offset="1" stop-color="#00479c"/></linearGradient><linearGradient id="B" x1="36.614" y1="47.872" x2="36.614" y2="60.711" gradientUnits="userSpaceOnUse"><stop stop-color="#0160d1"/><stop offset="1" stop-color="#00479c"/></linearGradient><clipPath id="C"><path fill="#fff" transform="translate(32.912 45.36)" d="M0 0h77.172v17.64H0z"/></clipPath></defs></svg>
